Origami/22x22/apps/runescape.svg

<svg width="22" height="22" version="1.1" viewBox="0 0 22 22" xmlns="http://www.w3.org/2000/svg">
 <g transform="translate(-1,-1)">
  <path d="M 12,2 A 10,10 0 0 0 2,12 10,10 0 0 0 12,22 10,10 0 0 0 22,12 10,10 0 0 0 12,2 Z" style="fill:#38738f"/>
  <path d="M 2.01075,12.209 A 10,10 0 0 0 2,12.5 10,10 0 0 0 12,22.5 10,10 0 0 0 22,12.5 10,10 0 0 0 21.9895,12.291 10,10 0 0 1 12,22 10,10 0 0 1 2.011,12.209 Z" style="opacity:.2"/>
  <path d="m12 2a10 10 0 0 0 -10 10 10 10 0 0 0 0.01075 0.209 10 10 0 0 1 9.989 -9.709 10 10 0 0 1 9.9895 9.791 10 10 0 0 0 0.0105 -0.291 10 10 0 0 0 -10 -10z" style="fill:#ffffff;opacity:.1"/>
  <path d="M 9,5.5 C 9,5.866114 9.2064683,6.1734106 9.5,6.3476562 V 8.5058594 C 9.0355972,8.509828 8.5730994,8.5213554 8.2246094,8.6054688 7.8433049,8.6975037 7.5,9 7.5,9.5 L 8,9.75 C 8,9.75 8.2606295,9.542663 8.5,9.5 8.6309804,9.476656 8.8111653,9.51213 9,9.568359 V 12.5 l -1,1 1,1 v 3.75 l 1,1.25 1,-1.25 V 9.5683594 C 11.188835,9.5121298 11.36902,9.4766563 11.5,9.5 11.739371,9.542665 12,9.75 12,9.75 L 12.5,9.5 C 12.5,9 12.156695,8.6975037 11.775391,8.6054688 11.426901,8.5213536 10.964403,8.5098275 10.5,8.5058594 V 6.3476562 C 10.793532,6.1734106 11,5.866114 11,5.5 Z m 3.568359,3 C 12.822288,8.74611 13,9.0875565 13,9.5 12.999962,9.6237585 12.954035,9.7421294 12.871094,9.8339844 13.642625,10.278292 14.026954,10.467973 14,11.431641 13.962211,12.782666 13.389399,13.100977 12,13.5 l 0.853516,1.615234 c 0.700712,1.323745 1.917811,2.19178 3.285156,2.875 C 17.687578,18.764175 19.255062,19.291041 21,19.5 19.784714,18.368783 18.398895,17.612756 17.072266,16.642578 15.955009,15.825517 15.244991,15.1869 14.5,14 15.215331,13.258562 15.949297,12.350981 16,11.283203 16.06686,9.8751161 15.000976,8.5 14.044922,8.5 Z" style="opacity:.2"/>
  <path d="m9 8.1h2v9.65l-1 1.25-1-1.25z" style="fill:#ffffff"/>
  <path d="M 10,8 C 9.3864345,8.0071 8.698486,7.990375 8.223633,8.104988 7.8423285,8.197023 7.5,8.5 7.5,9 L 8,9.25 C 8,9.25 8.2606295,9.042663 8.5,9 8.957157,8.918524 10,9.5 10,9.5 10,9.5 11.042843,8.918524 11.5,9 11.739371,9.042665 12,9.25 12,9.25 L 12.5,9 C 12.5,8.5 12.157671,8.197023 11.776367,8.104988 11.301514,7.9903725 10.613566,8.007101 10,8 Z" style="fill:#ffffff"/>
  <rect transform="rotate(90)" x="5.5" y="-10.5" width="3" height="1" style="fill:#ffffff"/>
  <path d="m11 5c0 0.5522845-0.447715 1-1 1-0.5522845 0-1-0.4477155-1-1z" style="fill:#ffffff"/>
  <rect transform="rotate(45)" x="14.85" y="2.12" width="1.414" height="1.414" style="fill:#ffffff"/>
  <path d="m12.567383 7.9995195c0.253929 0.24611 0.432617 0.5875565 0.432617 1-3.8e-5 0.1237585-0.045965 0.243106-0.128906 0.334961 0.771531 0.4443081 1.15586 0.6328523 1.128906 1.5965195-0.037789 1.351025-0.610601 1.669977-2 2.069l0.854492 1.614258c0.700712 1.323745 1.916835 2.192756 3.28418 2.875976 1.548906 0.773941 3.11639 1.300807 4.861328 1.509766-1.215286-1.131217-2.600129-1.886268-3.926758-2.856446-1.117257-0.817061-1.828251-1.456654-2.573242-2.643554 0.715331-0.741438 1.449297-1.649995 1.5-2.717773 0.06686-1.408087-1-2.7827075-1.956054-2.7827075z" style="fill:#ffffff"/>
 </g>
</svg>

<svg xmlns="http://www.w3.org/2000/svg" width="22" height="22" version="1.1" viewBox="0 0 22 22">
 <g transform="translate(-1,-1)">
  <path style="fill:#38738f" d="M 12,2 A 10,10 0 0 0 2,12 10,10 0 0 0 12,22 10,10 0 0 0 22,12 10,10 0 0 0 12,2 Z"/>
  <path style="opacity:0.2" d="M 2.01075,12.209 A 10,10 0 0 0 2,12.5 10,10 0 0 0 12,22.5 10,10 0 0 0 22,12.5 10,10 0 0 0 21.9895,12.291 10,10 0 0 1 12,22 10,10 0 0 1 2.011,12.209 Z"/>
  <path style="opacity:0.1;fill:#ffffff" d="m 12,2 a 10,10 0 0 0 -10,10 10,10 0 0 0 0.01075,0.209 10,10 0 0 1 9.989,-9.709 10,10 0 0 1 9.9895,9.791 10,10 0 0 0 0.0105,-0.291 10,10 0 0 0 -10,-10 z"/>
  <path style="opacity:0.2" d="M 9,5.5 C 9,5.866114 9.2064683,6.1734106 9.5,6.3476562 V 8.5058594 C 9.0355972,8.509828 8.5730994,8.5213554 8.2246094,8.6054688 7.8433049,8.6975037 7.5,9 7.5,9.5 L 8,9.75 C 8,9.75 8.2606295,9.542663 8.5,9.5 8.6309804,9.476656 8.8111653,9.51213 9,9.568359 V 12.5 l -1,1 1,1 v 3.75 l 1,1.25 1,-1.25 V 9.5683594 C 11.188835,9.5121298 11.36902,9.4766563 11.5,9.5 11.739371,9.542665 12,9.75 12,9.75 L 12.5,9.5 C 12.5,9 12.156695,8.6975037 11.775391,8.6054688 11.426901,8.5213536 10.964403,8.5098275 10.5,8.5058594 V 6.3476562 C 10.793532,6.1734106 11,5.866114 11,5.5 Z m 3.568359,3 C 12.822288,8.74611 13,9.0875565 13,9.5 12.999962,9.6237585 12.954035,9.7421294 12.871094,9.8339844 13.642625,10.278292 14.026954,10.467973 14,11.431641 13.962211,12.782666 13.389399,13.100977 12,13.5 l 0.853516,1.615234 c 0.700712,1.323745 1.917811,2.19178 3.285156,2.875 C 17.687578,18.764175 19.255062,19.291041 21,19.5 19.784714,18.368783 18.398895,17.612756 17.072266,16.642578 15.955009,15.825517 15.244991,15.1869 14.5,14 15.215331,13.258562 15.949297,12.350981 16,11.283203 16.06686,9.8751161 15.000976,8.5 14.044922,8.5 Z"/>
  <path style="fill:#ffffff" d="m 9,8.1 h 2 v 9.65 L 10,19 9,17.75 Z"/>
  <path style="fill:#ffffff" d="M 10,8 C 9.3864345,8.0071 8.698486,7.990375 8.223633,8.104988 7.8423285,8.197023 7.5,8.5 7.5,9 L 8,9.25 C 8,9.25 8.2606295,9.042663 8.5,9 8.957157,8.918524 10,9.5 10,9.5 10,9.5 11.042843,8.918524 11.5,9 11.739371,9.042665 12,9.25 12,9.25 L 12.5,9 C 12.5,8.5 12.157671,8.197023 11.776367,8.104988 11.301514,7.9903725 10.613566,8.007101 10,8 Z"/>
  <rect style="fill:#ffffff" width="3" height="1" x="5.5" y="-10.5" transform="rotate(90)"/>
  <path style="fill:#ffffff" d="M 11,5 C 11,5.5522845 10.552285,6 10,6 9.4477155,6 9,5.5522845 9,5 Z"/>
  <rect style="fill:#ffffff" width="1.414" height="1.414" x="14.85" y="2.12" transform="rotate(45)"/>
  <path style="fill:#ffffff" d="M 12.567383,7.9995195 C 12.821312,8.2456295 13,8.587076 13,8.9995195 12.999962,9.123278 12.954035,9.2426255 12.871094,9.3344805 13.642625,9.7787886 14.026954,9.9673328 14,10.931 13.962211,12.282025 13.389399,12.600977 12,13 l 0.854492,1.614258 c 0.700712,1.323745 1.916835,2.192756 3.28418,2.875976 C 17.687578,18.264175 19.255062,18.791041 21,19 19.784714,17.868783 18.399871,17.113732 17.073242,16.143554 15.955985,15.326493 15.244991,14.6869 14.5,13.5 15.215331,12.758562 15.949297,11.850005 16,10.782227 16.06686,9.37414 15,7.9995195 14.043946,7.9995195 Z"/>
 </g>
</svg>
